X: 1427
T: Nazarın Fikrime Nûr-efşândır
C: Leylâ Saz
O: Turkey
F: http://compmusic.upf.edu/node/140
N: kurdilihicazkar--sarki--aksak--nazarin_fikrime--leyla_saz
N: makam= kurdilihicazkar
N: form= sarki
N: usul= aksak = 9/8
M: 9/8
L: 1/16
K: C _B _e _A 
Q: 1/4=108
%%MIDI tuningsystem comma53
z4 f2g2 g8 gf | f3_1/4e_1/4b3/2_7/8a/ agg4c3/2d/ efg2  | \
w:  Na za rın   |  fik *  ri *  me  *  nûr  SAZ  | 
=a2{c'}ba g4 gf{a}gf _1/4e2d2 c2 | 
w:  ef   | 
c4=a2 f2f3_1/4eg{a}g feed  | d4-db=ag f_1/4eed d4 f/e/f | 
w:  *  ef *  şân  |  dır   SAZ  | 
g4f3gg4{a}g2 f2e2  | d3c cedc c4 e/d/cdB c2 | \
w:  *  Göz le rim   |  ak *  sin_ *  i *  le  SAZ  | 
B3/2=A/ Bcd3/2c/ d_1/4ef2 efg6  | 
w:  tâ  | 
f2{a}gf e3/2d/c2 B4 c{d}cBA AG | G6 _1/4efg3/2f/ efg4f/e/f  | 
w:  *  *  *  *  *  *  *  bân  |  dır   SAZ  | 
g4 f3g g4 {a}g2f2 e2 | d3cce dcc4e/d/c dBc2  | \
w:  *  Göz le rim   |  ak *  sin_ *  i *  le  SAZ  | 
B3/2=A/Bc d3/2c/d_1/4e f2ef g6 | 
w:  tâ  | 
f2 {a}gfe3/2d/ c2B4c{d}c BAAG  | G6b_7/8c' b3/2_1/4a/ga b3_7/8a (3d'c'b | 
w:  *  *  *  *  *  *  *  bân  |  dır   SAZ  | 
b4g3_1/4ab8_7/8c'2  | b2_1/4ag d'_7/8c'c'b b2(3c'ba b4 z2 | \
w:  *  Dil  gü zel   |  söz *  *  le *  ri *  ne   | 
_7/8c'3b_1/4a4ba {c'}bag4a2  | 
w:  hay  | 
_1/4a2b4_7/8c'2 c'2b2 c'ba2 ag | g6 _1/4efg3/2f/ efg4f/e/f  | 
w:  *  *  *  rân  |  dır   SAZ  | 
g4 g2=a2 b2a2 g2f2 _1/4e2 | f3_1/4ef2 g=aag fed4z2  | \
w:  *  Se ni  sev  |  mek *  le  gö *  nül   | 
=a2{c'}ba g4 gfgf _1/4e2d2 c2 | 
w:  şâ   | 
c4=a2 f2f3_1/4eg{a}g feed  | d4-db=ag f_1/4eed d4 f/e/f | 
w:  *  şâ *  dân  |  dır   SAZ  | 
g4f3gg4{a}g2 f2e2  | d3c cedc c4 e/d/cdB c2 | \
w:  *  Göz le rim   |  ak *  sin_ *  i *  le  SAZ  | 
B3/2=A/ Bcd3/2c/ d_1/4ef2 efg6  | 
w:  tâ  | 
f2{a}gf e3/2d/c2 B4 c{d}cBA AG | G6 _1/4efg3/2f/ efg4f/e/f  | 
w:  *  *  *  *  *  *  *  bân  |  dır   SAZ  | 
g4 f3g g4 {a}g2f2 e2 | d3cce dcc4e/d/c dBc2  | \
w:  *  Göz le rim   |  ak *  sin_ *  i *  le  SAZ  | 
B3/2=A/Bc d3/2c/d_1/4e f2ef g6 | 
w:  tâ  | 
f2 {a}gfe3/2d/ c2B4c{d}c BAAG  | G6|
w:  *  *  *  *  *  *  *  bân  |  dır    | 


